Origami/64x64/apps/preferences-desktop-font.svg

<svg width="64" height="64" version="1" xmlns="http://www.w3.org/2000/svg">
 <rect transform="rotate(90)" x="4" y="-60" width="38" height="38" rx="3" ry="3" style="fill:#c2c2c2"/>
 <path d="m51.70682 30.00322v1.27514h-11.9864c0.1134 1.79464 0.65172 3.1642 1.61518 4.1088 0.97288 0.93512 2.3236 1.40266 4.0522 1.40266 1.0012 0 1.96938-0.12278 2.9044-0.36836 0.94452-0.24558 1.87964-0.61396 2.8054-1.10514v2.4652c-0.93512 0.39672-1.89384 0.69896-2.8762 0.90676s-1.97884 0.31172-2.9896 0.31172c-2.5314 0-4.5386-0.73676-6.0216-2.2102-1.4735-1.4735-2.2102-3.4664-2.2102-5.979-1.4e-5 -2.5976 0.69896-4.6566 2.0968-6.1774 1.40738-1.53016 3.3012-2.2952 5.6814-2.2952 2.1346 1.4e-5 3.8206 0.68954 5.058 2.0686 1.24678 1.3696 1.8702 3.235 1.8702 5.5964m-2.607-0.76508c-0.019-1.42626-0.42036-2.5644-1.2043-3.4146-0.77454-0.85008-1.8041-1.27512-3.0886-1.27514-1.45462 1.4e-5 -2.6212 0.41088-3.4996 1.23264-0.869 0.82178-1.3696 1.97884-1.50184 3.4712l9.2944-0.0142m-3.1454-12.638h2.8762v2.862h-2.8762v-2.862m-5.5398 0h2.8762v2.862h-2.8762v-2.862" style="fill:#9d9d9d"/>
 <path d="m22 39v1c0 1.662 1.338 3 3 3h32c1.662 0 3-1.338 3-3v-1c0 1.662-1.338 3-3 3h-32c-1.662 0-3-1.338-3-3z" style="opacity:.2"/>
 <rect transform="rotate(90)" x="22" y="-42" width="38" height="38" rx="3" ry="3" style="fill:#d3d3d3"/>
 <path d="m25 4c-1.662 0-3 1.338-3 3v1c0-1.662 1.338-3 3-3h32c1.662 0 3 1.338 3 3v-1c0-1.662-1.338-3-3-3h-32z" style="fill:#ffffff;opacity:.1"/>
 <path d="m7 22c-1.662 0-3 1.338-3 3v1c0-1.662 1.338-3 3-3h32c1.662 0 3 1.338 3 3v-1c0-1.662-1.338-3-3-3h-32z" style="fill:#ffffff;opacity:.1"/>
 <path d="m28.56706 47.476c-2.2002 2.2e-5 -3.7244 0.24476-4.573 0.73426-0.8485 0.48952-1.27274 1.32454-1.27274 2.5052 0 0.94062 0.31572 1.68928 0.94716 2.246 0.64128 0.5471 1.5095 0.82064 2.6046 0.82064 1.5095 0 2.718-0.5183 3.6258-1.55488 0.91752-1.0462 1.3763-2.4332 1.37632-4.1608v-0.59028h-2.7082m5.432-1.094v9.1998h-2.723v-2.4476c-0.62 0.98-1.396 1.704-2.322 2.174-0.928 0.462-2.062 0.692-3.404 0.692-1.698 0-3.048-0.46-4.056-1.382-0.996-0.932-1.494-2.174-1.494-3.728 0-1.81404 0.62156-3.1818 1.8647-4.1032 1.253-0.9214 3.1176-1.38212 5.594-1.38212h3.8182v-0.25916c-2.2e-5 -1.21894-0.41438-2.1596-1.24312-2.8218-0.8189-0.67184-1.97322-1.0078-3.463-1.0078-0.94714 2e-5 -1.86962 0.1104-2.7674 0.33114-0.89782 0.22076-1.7611 0.5519-2.5898 0.9934v-2.4476c0.99648-0.37432 1.96334-0.65264 2.9006-0.83504 0.93728-0.19194 1.8499-0.28792 2.7378-0.28794 2.3974 2e-5 4.1882 0.6047 5.372 1.81404 1.18392 1.20938 1.77588 3.0426 1.7759 5.4998m-9.174-14.382 4.1734 5.3846h-2.2642l-4.824-5.384h2.9154" style="fill:#7e7e7e"/>
 <path d="m4 57v1c0 1.662 1.338 3 3 3h32c1.662 0 3-1.338 3-3v-1c0 1.662-1.338 3-3 3h-32c-1.662 0-3-1.338-3-3z" style="opacity:.2"/>
</svg>

<svg xmlns="http://www.w3.org/2000/svg" width="64" height="64" version="1">
 <rect style="fill:#c2c2c2" width="38" height="38" x="4" y="-60" rx="3" ry="3" transform="matrix(0,1,-1,0,0,0)"/>
 <path style="fill:#9d9d9d" d="m 51.70682,30.00322 0,1.27514 -11.9864,0 c 0.1134,1.79464 0.65172,3.1642 1.61518,4.1088 0.97288,0.93512 2.3236,1.40266 4.0522,1.40266 1.0012,0 1.96938,-0.12278 2.9044,-0.36836 0.94452,-0.24558 1.87964,-0.61396 2.8054,-1.10514 l 0,2.4652 c -0.93512,0.39672 -1.89384,0.69896 -2.8762,0.90676 C 47.23904,38.89608 46.24256,39 45.2318,39 42.7004,39 40.6932,38.26324 39.2102,36.7898 37.7367,35.3163 37,33.3234 37,30.8108 c -1.4e-5,-2.5976 0.69896,-4.6566 2.0968,-6.1774 1.40738,-1.53016 3.3012,-2.2952 5.6814,-2.2952 2.1346,1.4e-5 3.8206,0.68954 5.058,2.0686 1.24678,1.3696 1.8702,3.235 1.8702,5.5964 m -2.607,-0.76508 c -0.019,-1.42626 -0.42036,-2.5644 -1.2043,-3.4146 -0.77454,-0.85008 -1.8041,-1.27512 -3.0886,-1.27514 -1.45462,1.4e-5 -2.6212,0.41088 -3.4996,1.23264 -0.869,0.82178 -1.3696,1.97884 -1.50184,3.4712 l 9.2944,-0.0142 m -3.1454,-12.638 2.8762,0 0,2.862 -2.8762,0 0,-2.862 m -5.5398,0 2.8762,0 0,2.862 -2.8762,0 0,-2.862"/>
 <path style="opacity:0.2" d="M 22 39 L 22 40 C 22 41.662 23.338 43 25 43 L 57 43 C 58.662 43 60 41.662 60 40 L 60 39 C 60 40.662 58.662 42 57 42 L 25 42 C 23.338 42 22 40.662 22 39 z"/>
 <rect style="fill:#d3d3d3" width="38" height="38" x="22" y="-42" rx="3" ry="3" transform="matrix(0,1,-1,0,0,0)"/>
 <path style="opacity:0.1;fill:#ffffff" d="M 25 4 C 23.338 4 22 5.338 22 7 L 22 8 C 22 6.338 23.338 5 25 5 L 57 5 C 58.662 5 60 6.338 60 8 L 60 7 C 60 5.338 58.662 4 57 4 L 25 4 z"/>
 <path style="opacity:0.1;fill:#ffffff" d="M 7 22 C 5.338 22 4 23.338 4 25 L 4 26 C 4 24.338 5.338 23 7 23 L 39 23 C 40.662 23 42 24.338 42 26 L 42 25 C 42 23.338 40.662 22 39 22 L 7 22 z"/>
 <path style="fill:#7e7e7e" d="m 28.56706,47.476 c -2.2002,2.2e-5 -3.7244,0.24476 -4.573,0.73426 -0.8485,0.48952 -1.27274,1.32454 -1.27274,2.5052 0,0.94062 0.31572,1.68928 0.94716,2.246 0.64128,0.5471 1.5095,0.82064 2.6046,0.82064 1.5095,0 2.718,-0.5183 3.6258,-1.55488 0.91752,-1.0462 1.3763,-2.4332 1.37632,-4.1608 l 0,-0.59028 -2.7082,0 m 5.432,-1.094 0,9.1998 -2.723,0 0,-2.4476 c -0.62,0.98 -1.396,1.704 -2.322,2.174 -0.928,0.462 -2.062,0.692 -3.404,0.692 -1.698,0 -3.048,-0.46 -4.056,-1.382 -0.996,-0.932 -1.494,-2.174 -1.494,-3.728 0,-1.81404 0.62156,-3.1818 1.8647,-4.1032 1.253,-0.9214 3.1176,-1.38212 5.594,-1.38212 l 3.8182,0 0,-0.25916 c -2.2e-5,-1.21894 -0.41438,-2.1596 -1.24312,-2.8218 -0.8189,-0.67184 -1.97322,-1.0078 -3.463,-1.0078 -0.94714,2e-5 -1.86962,0.1104 -2.7674,0.33114 -0.89782,0.22076 -1.7611,0.5519 -2.5898,0.9934 l 0,-2.4476 c 0.99648,-0.37432 1.96334,-0.65264 2.9006,-0.83504 0.93728,-0.19194 1.8499,-0.28792 2.7378,-0.28794 2.3974,2e-5 4.1882,0.6047 5.372,1.81404 1.18392,1.20938 1.77588,3.0426 1.7759,5.4998 m -9.174,-14.382 4.1734,5.3846 -2.2642,0 -4.824,-5.384 2.9154,0"/>
 <path style="opacity:0.2" d="M 4 57 L 4 58 C 4 59.662 5.338 61 7 61 L 39 61 C 40.662 61 42 59.662 42 58 L 42 57 C 42 58.662 40.662 60 39 60 L 7 60 C 5.338 60 4 58.662 4 57 z"/>
</svg>
